static/img/kroki/730949a37ce9b32d9293fa1c93aace1d.svg

<?xml version="1.0" encoding="us-ascii" standalone="no"?><svg xmlns="http://www.w3.org/2000/svg" xmlns:xlink="http://www.w3.org/1999/xlink" contentStyleType="text/css" height="252px" preserveAspectRatio="none" style="width:572px;height:252px;" version="1.1" viewBox="0 0 572 252" width="572px" zoomAndPan="magnify"><defs/><g><!--class kubernetes_namespace--><g id="elem_kubernetes_namespace"><rect codeLine="23" fill="#3D176E" height="39.7891" id="kubernetes_namespace" rx="2.5" ry="2.5" style="stroke:#000D19;stroke-width:0.5;" width="239" x="116" y="7"/><ellipse cx="131" cy="26.8945" fill="#ADD1B2" rx="11" ry="11" style="stroke:#181818;stroke-width:1.0;"/><path d="M133.9688,32.5352 Q133.3906,32.832 132.75,32.9727 Q132.1094,33.1289 131.4063,33.1289 Q128.9063,33.1289 127.5781,31.4883 Q126.2656,29.832 126.2656,26.707 Q126.2656,23.582 127.5781,21.9258 Q128.9063,20.2695 131.4063,20.2695 Q132.1094,20.2695 132.75,20.4258 Q133.4063,20.582 133.9688,20.8789 L133.9688,23.5977 Q133.3438,23.0195 132.75,22.7539 Q132.1563,22.4727 131.5313,22.4727 Q130.1875,22.4727 129.5,23.5508 Q128.8125,24.6133 128.8125,26.707 Q128.8125,28.8008 129.5,29.8789 Q130.1875,30.9414 131.5313,30.9414 Q132.1563,30.9414 132.75,30.6758 Q133.3438,30.3945 133.9688,29.8164 L133.9688,32.5352 Z " fill="#000000"/><text fill="#D9B8FF" font-family="Helvetica" font-size="17" lengthAdjust="spacing" textLength="197" x="150" y="32.7798">kubernetes_namespace</text></g><!--class kubernetes_pod--><g id="elem_kubernetes_pod"><rect codeLine="26" fill="#3D176E" height="39.7891" id="kubernetes_pod" rx="2.5" ry="2.5" style="stroke:#000D19;stroke-width:0.5;" width="175" x="7" y="106.79"/><ellipse cx="22" cy="126.6845" fill="#ADD1B2" rx="11" ry="11" style="stroke:#181818;stroke-width:1.0;"/><path d="M24.9688,132.3252 Q24.3906,132.622 23.75,132.7627 Q23.1094,132.9189 22.4063,132.9189 Q19.9063,132.9189 18.5781,131.2783 Q17.2656,129.622 17.2656,126.497 Q17.2656,123.372 18.5781,121.7158 Q19.9063,120.0595 22.4063,120.0595 Q23.1094,120.0595 23.75,120.2158 Q24.4063,120.372 24.9688,120.6689 L24.9688,123.3877 Q24.3438,122.8095 23.75,122.5439 Q23.1563,122.2627 22.5313,122.2627 Q21.1875,122.2627 20.5,123.3408 Q19.8125,124.4033 19.8125,126.497 Q19.8125,128.5908 20.5,129.6689 Q21.1875,130.7314 22.5313,130.7314 Q23.1563,130.7314 23.75,130.4658 Q24.3438,130.1845 24.9688,129.6064 L24.9688,132.3252 Z " fill="#000000"/><text fill="#D9B8FF" font-family="Helvetica" font-size="17" lengthAdjust="spacing" textLength="133" x="41" y="132.5698">kubernetes_pod</text></g><!--class kubernetes_secret--><g id="elem_kubernetes_secret"><rect codeLine="29" fill="#3D176E" height="39.7891" id="kubernetes_secret" rx="2.5" ry="2.5" style="stroke:#000D19;stroke-width:0.5;" width="195" x="138" y="206.58"/><ellipse cx="153" cy="226.4745" fill="#ADD1B2" rx="11" ry="11" style="stroke:#181818;stroke-width:1.0;"/><path d="M155.9688,232.1152 Q155.3906,232.412 154.75,232.5527 Q154.1094,232.7089 153.4063,232.7089 Q150.9063,232.7089 149.5781,231.0683 Q148.2656,229.412 148.2656,226.287 Q148.2656,223.162 149.5781,221.5058 Q150.9063,219.8495 153.4063,219.8495 Q154.1094,219.8495 154.75,220.0058 Q155.4063,220.162 155.9688,220.4589 L155.9688,223.1777 Q155.3438,222.5995 154.75,222.3339 Q154.1563,222.0527 153.5313,222.0527 Q152.1875,222.0527 151.5,223.1308 Q150.8125,224.1933 150.8125,226.287 Q150.8125,228.3808 151.5,229.4589 Q152.1875,230.5214 153.5313,230.5214 Q154.1563,230.5214 154.75,230.2558 Q155.3438,229.9745 155.9688,229.3964 L155.9688,232.1152 Z " fill="#000000"/><text fill="#D9B8FF" font-family="Helvetica" font-size="17" lengthAdjust="spacing" textLength="153" x="172" y="232.3598">kubernetes_secret</text></g><!--class kubernetes_service_account--><g id="elem_kubernetes_service_account"><rect codeLine="32" fill="#3D176E" height="39.7891" id="kubernetes_service_account" rx="2.5" ry="2.5" style="stroke:#000D19;stroke-width:0.5;" width="277" x="288" y="106.79"/><ellipse cx="303" cy="126.6845" fill="#ADD1B2" rx="11" ry="11" style="stroke:#181818;stroke-width:1.0;"/><path d="M305.9688,132.3252 Q305.3906,132.622 304.75,132.7627 Q304.1094,132.9189 303.4063,132.9189 Q300.9063,132.9189 299.5781,131.2783 Q298.2656,129.622 298.2656,126.497 Q298.2656,123.372 299.5781,121.7158 Q300.9063,120.0595 303.4063,120.0595 Q304.1094,120.0595 304.75,120.2158 Q305.4063,120.372 305.9688,120.6689 L305.9688,123.3877 Q305.3438,122.8095 304.75,122.5439 Q304.1563,122.2627 303.5313,122.2627 Q302.1875,122.2627 301.5,123.3408 Q300.8125,124.4033 300.8125,126.497 Q300.8125,128.5908 301.5,129.6689 Q302.1875,130.7314 303.5313,130.7314 Q304.1563,130.7314 304.75,130.4658 Q305.3438,130.1845 305.9688,129.6064 L305.9688,132.3252 Z " fill="#000000"/><text fill="#D9B8FF" font-family="Helvetica" font-size="17" lengthAdjust="spacing" textLength="235" x="322" y="132.5698">kubernetes_service_account</text></g><!--link kubernetes_namespace to kubernetes_pod--><g id="link_kubernetes_namespace_kubernetes_pod"><path codeLine="35" d="M207.64,47.22 C182.92,64.36 151.9294,85.8493 127.2294,102.9893 " fill="none" id="kubernetes_namespace-to-kubernetes_pod" style="stroke:#1A83AF;stroke-width:2.0;"/><polygon fill="#1A83AF" points="122.3,106.41,131.9746,104.5653,126.4078,103.5595,127.4137,97.9927,122.3,106.41" style="stroke:#1A83AF;stroke-width:2.0;"/></g><!--link kubernetes_namespace to kubernetes_secret--><g id="link_kubernetes_namespace_kubernetes_secret"><path codeLine="36" d="M235.5,47.2 C235.5,84.97 235.5,162.26 235.5,200.09 " fill="none" id="kubernetes_namespace-to-kubernetes_secret" style="stroke:#1A83AF;stroke-width:2.0;"/><polygon fill="#1A83AF" points="235.5,206.09,239.5,197.09,235.5,201.09,231.5,197.09,235.5,206.09" style="stroke:#1A83AF;stroke-width:2.0;"/></g><!--link kubernetes_namespace to kubernetes_service_account--><g id="link_kubernetes_namespace_kubernetes_service_account"><path codeLine="37" d="M273.24,47.22 C306.72,64.36 350.0399,86.5345 383.4999,103.6745 " fill="none" id="kubernetes_namespace-to-kubernetes_service_account" style="stroke:#1A83AF;stroke-width:2.0;"/><polygon fill="#1A83AF" points="388.84,106.41,382.6535,98.7467,384.3899,104.1304,379.0061,105.8668,388.84,106.41" style="stroke:#1A83AF;stroke-width:2.0;"/></g><!--link kubernetes_pod to kubernetes_secret--><g id="link_kubernetes_pod_kubernetes_secret"><path codeLine="38" d="M122.36,147.01 C147.08,164.15 178.0706,185.6393 202.7706,202.7793 " fill="none" id="kubernetes_pod-to-kubernetes_secret" style="stroke:#1A83AF;stroke-width:2.0;"/><polygon fill="#1A83AF" points="207.7,206.2,202.5863,197.7827,203.5922,203.3495,198.0254,204.3553,207.7,206.2" style="stroke:#1A83AF;stroke-width:2.0;"/></g><!--link kubernetes_service_account to kubernetes_secret--><g id="link_kubernetes_service_account_kubernetes_secret"><path codeLine="39" d="M388.76,147.01 C355.28,164.15 311.9601,186.3245 278.5001,203.4645 " fill="none" id="kubernetes_service_account-to-kubernetes_secret" style="stroke:#1A83AF;stroke-width:2.0;"/><polygon fill="#1A83AF" points="273.16,206.2,282.9939,205.6568,277.6101,203.9204,279.3465,198.5367,273.16,206.2" style="stroke:#1A83AF;stroke-width:2.0;"/></g><!--SRC=[bP9HQy8m58NV-oi2FWjsibLV1fqWsukCkRSn92Ot6jecvUPMSMF_VUrq8wPMv-iztxtdd92rbi2WA6d72YYMW2vocJObHrwm5D5k9pQto7fASJLCGd5g3Lq4Phm0zWZv1aWB7XAlQoqo0ywn6qzwu29ReQsCt9ydvCRL4XZog4dEdKk9K2yh0Y-C72z7IeLaUBGtb75o1otCeWGy88F1GCRZ4BbeTRRt7p7N7y1Y_z5cbg0LisNnGvrDsH1Uo5RHNxqpupENKfiLk_LcB_jCQ02FvlCrbtRRq8hdphTn10YMTYLCMgrWF98gEGa_TS6HQ9wEPLNzKmqGk8Mf2zGVGm3xZAAljbvQsQ4u40ZKAU962rXm8UeK1-gaRV-j5wUZOJfzxzy7njSjxFDSktCKCmgA_zygx7jXyni0]--></g></svg>

<svg xmlns="http://www.w3.org/2000/svg" width="572" height="252" viewBox="0 0 572 252"><rect width="239" height="39.789" x="116" y="7" fill="#3D176E" rx="2.5" ry="2.5" style="stroke:#000d19;stroke-width:.5"/><circle cx="131" cy="26.895" r="11" fill="#ADD1B2" style="stroke:#181818;stroke-width:1"/><path d="M133.969 32.535q-.578.297-1.219.438-.64.156-1.344.156-2.5 0-3.828-1.64-1.312-1.657-1.312-4.782t1.312-4.781q1.328-1.656 3.828-1.656.703 0 1.344.156.656.156 1.219.453v2.719q-.625-.578-1.219-.844-.594-.281-1.219-.281-1.344 0-2.031 1.078-.687 1.062-.687 3.156t.687 3.172q.688 1.062 2.031 1.062.625 0 1.219-.265.594-.281 1.219-.86z"/><text x="150" y="32.78" fill="#D9B8FF" font-family="Helvetica" font-size="17" textLength="197">kubernetes_namespace</text><rect width="175" height="39.789" x="7" y="106.79" fill="#3D176E" rx="2.5" ry="2.5" style="stroke:#000d19;stroke-width:.5"/><circle cx="22" cy="126.684" r="11" fill="#ADD1B2" style="stroke:#181818;stroke-width:1"/><path d="M24.969 132.325q-.578.297-1.219.438-.64.156-1.344.156-2.5 0-3.828-1.64-1.312-1.657-1.312-4.782t1.312-4.781q1.328-1.656 3.828-1.656.703 0 1.344.156.656.156 1.219.453v2.719q-.625-.579-1.219-.844-.594-.281-1.219-.281-1.343 0-2.031 1.078-.687 1.062-.687 3.156t.687 3.172q.688 1.062 2.031 1.062.625 0 1.219-.265.594-.281 1.219-.86z"/><text x="41" y="132.57" fill="#D9B8FF" font-family="Helvetica" font-size="17" textLength="133">kubernetes_pod</text><rect width="195" height="39.789" x="138" y="206.58" fill="#3D176E" rx="2.5" ry="2.5" style="stroke:#000d19;stroke-width:.5"/><circle cx="153" cy="226.475" r="11" fill="#ADD1B2" style="stroke:#181818;stroke-width:1"/><path d="M155.969 232.115q-.578.297-1.219.438-.64.156-1.344.156-2.5 0-3.828-1.64-1.312-1.657-1.312-4.782t1.312-4.781q1.328-1.656 3.828-1.656.703 0 1.344.156.656.156 1.219.453v2.719q-.625-.578-1.219-.844-.594-.281-1.219-.281-1.344 0-2.031 1.078-.687 1.062-.687 3.156t.687 3.172q.688 1.062 2.031 1.062.625 0 1.219-.265.594-.281 1.219-.86z"/><text x="172" y="232.36" fill="#D9B8FF" font-family="Helvetica" font-size="17" textLength="153">kubernetes_secret</text><rect width="277" height="39.789" x="288" y="106.79" fill="#3D176E" rx="2.5" ry="2.5" style="stroke:#000d19;stroke-width:.5"/><circle cx="303" cy="126.684" r="11" fill="#ADD1B2" style="stroke:#181818;stroke-width:1"/><path d="M305.969 132.325q-.578.297-1.219.438-.64.156-1.344.156-2.5 0-3.828-1.64-1.312-1.657-1.312-4.782t1.312-4.781q1.328-1.656 3.828-1.656.703 0 1.344.156.656.156 1.219.453v2.719q-.625-.579-1.219-.844-.594-.281-1.219-.281-1.344 0-2.031 1.078-.687 1.062-.687 3.156t.687 3.172q.688 1.062 2.031 1.062.625 0 1.219-.265.594-.281 1.219-.86z"/><text x="322" y="132.57" fill="#D9B8FF" font-family="Helvetica" font-size="17" textLength="235">kubernetes_service_account</text><path fill="none" d="M207.64 47.22c-24.72 17.14-55.71 38.63-80.41 55.77" style="stroke:#1a83af;stroke-width:2"/><path fill="#1A83AF" d="m122.3 106.41 9.675-1.845-5.567-1.005 1.006-5.567z" style="stroke:#1a83af;stroke-width:2"/><path fill="none" d="M235.5 47.2v152.89" style="stroke:#1a83af;stroke-width:2"/><path fill="#1A83AF" d="m235.5 206.09 4-9-4 4-4-4z" style="stroke:#1a83af;stroke-width:2"/><path fill="none" d="M273.24 47.22c33.48 17.14 76.8 39.314 110.26 56.454" style="stroke:#1a83af;stroke-width:2"/><path fill="#1A83AF" d="m388.84 106.41-6.186-7.663 1.736 5.383-5.384 1.737z" style="stroke:#1a83af;stroke-width:2"/><path fill="none" d="M122.36 147.01c24.72 17.14 55.71 38.63 80.41 55.77" style="stroke:#1a83af;stroke-width:2"/><path fill="#1A83AF" d="m207.7 206.2-5.114-8.417 1.006 5.567-5.567 1.005z" style="stroke:#1a83af;stroke-width:2"/><path fill="none" d="M388.76 147.01c-33.48 17.14-76.8 39.315-110.26 56.454" style="stroke:#1a83af;stroke-width:2"/><path fill="#1A83AF" d="m273.16 206.2 9.834-.543-5.384-1.737 1.736-5.383z" style="stroke:#1a83af;stroke-width:2"/></svg>
